storage/app/icons/tabler/outline/brand-tabnine.svg

<!--
tags: [ai, code, completion, assistant, programming, ide, brand, logo, autocomplete, developer]
category: Brand
unicode: "101ae"
version: "3.36"
-->
<svg
  xmlns="http://www.w3.org/2000/svg"
  width="24"
  height="24"
  viewBox="0 0 24 24"
  fill="none"
  stroke="currentColor"
  stroke-width="2"
  stroke-linecap="round"
  stroke-linejoin="round"
>
  <path d="M20 12l-12 6.75m12 -6.75l-12 -6.75m12 6.75v-4.527l-8 -4.473l-4 2.25m12 6.75v4.5l-8 4.5l-4 -2.25m0 -13.5l-4 2.222v9.028l4 2.25l12 -6.75" />
</svg>

<svg xmlns="http://www.w3.org/2000/svg" width="24" height="24" fill="none" stroke="currentColor" stroke-linecap="round" stroke-linejoin="round" stroke-width="2" viewBox="0 0 24 24"><path d="M20 12 8 18.75M20 12 8 5.25M20 12V7.473L12 3 8 5.25M20 12v4.5L12 21l-4-2.25m0-13.5L4 7.472V16.5l4 2.25L20 12"/></svg>
